packages/ffe-icons/icons/open/400/sm/tty.svg

<svg xmlns="http://www.w3.org/2000/svg" height="20" viewBox="0 -960 960 960" width="20"><path d="M468.211-480Q453-480 442.5-490.289q-10.5-10.29-10.5-25.5Q432-531 442.289-541.5q10.29-10.5 25.5-10.5Q483-552 493.5-541.711q10.5 10.29 10.5 25.5Q504-501 493.711-490.5q-10.29 10.5-25.5 10.5Zm0-216Q453-696 442.5-706.289q-10.5-10.29-10.5-25.5Q432-747 442.289-757.5q10.29-10.5 25.5-10.5Q483-768 493.5-757.711q10.5 10.29 10.5 25.5Q504-717 493.711-706.5q-10.29 10.5-25.5 10.5Zm56 108Q509-588 498.5-598.289q-10.5-10.29-10.5-25.5Q488-639 498.289-649.5q10.29-10.5 25.5-10.5Q539-660 549.5-649.711q10.5 10.29 10.5 25.5Q560-609 549.711-598.5q-10.29 10.5-25.5 10.5Zm56 108Q565-480 554.5-490.289q-10.5-10.29-10.5-25.5Q544-531 554.289-541.5q10.29-10.5 25.5-10.5Q595-552 605.5-541.711q10.5 10.29 10.5 25.5Q616-501 605.711-490.5q-10.29 10.5-25.5 10.5Zm0-216Q565-696 554.5-706.289q-10.5-10.29-10.5-25.5Q544-747 554.289-757.5q10.29-10.5 25.5-10.5Q595-768 605.5-757.711q10.5 10.29 10.5 25.5Q616-717 605.711-706.5q-10.29 10.5-25.5 10.5Zm56 108Q621-588 610.5-598.289q-10.5-10.29-10.5-25.5Q600-639 610.289-649.5q10.29-10.5 25.5-10.5Q651-660 661.5-649.711q10.5 10.29 10.5 25.5Q672-609 661.711-598.5q-10.29 10.5-25.5 10.5Zm56 108Q677-480 666.5-490.289q-10.5-10.29-10.5-25.5Q656-531 666.289-541.5q10.29-10.5 25.5-10.5Q707-552 717.5-541.711q10.5 10.29 10.5 25.5Q728-501 717.711-490.5q-10.29 10.5-25.5 10.5Zm0-216Q677-696 666.5-706.289q-10.5-10.29-10.5-25.5Q656-747 666.289-757.5q10.29-10.5 25.5-10.5Q707-768 717.5-757.711q10.5 10.29 10.5 25.5Q728-717 717.711-706.5q-10.29 10.5-25.5 10.5Zm56 108Q733-588 722.5-598.289q-10.5-10.29-10.5-25.5Q712-639 722.289-649.5q10.29-10.5 25.5-10.5Q763-660 773.5-649.711q10.5 10.29 10.5 25.5Q784-609 773.711-598.5q-10.29 10.5-25.5 10.5Zm56 108Q789-480 778.5-490.289q-10.5-10.29-10.5-25.5Q768-531 778.289-541.5q10.29-10.5 25.5-10.5Q819-552 829.5-541.711q10.5 10.29 10.5 25.5Q840-501 829.711-490.5q-10.29 10.5-25.5 10.5Zm0-216Q789-696 778.5-706.289q-10.5-10.29-10.5-25.5Q768-747 778.289-757.5q10.29-10.5 25.5-10.5Q819-768 829.5-757.711q10.5 10.29 10.5 25.5Q840-717 829.711-706.5q-10.29 10.5-25.5 10.5ZM763-145q-121-9-229.5-59.5T339-341q-86-86-135.5-194T144-764q-2-21 12.286-36.5Q170.571-816 192-816h136q17 0 29.5 10.5T374-779l24 106q2 13-1.5 25T385-628l-97 98q20 38 46 73t57.969 65.984Q422-361 456-335.5q34 25.5 72 45.5l99-96q8-8 20-11.5t25-1.5l107 23q17 5 27 17.5t10 29.5v136q0 21.429-16 35.714Q784-143 763-145ZM255-600l70-70-17.16-74H218q5 38 14 73.5t23 70.5Zm344 344q35.1 14.243 71.55 22.622Q707-225 744-220v-90l-75-16-70 70ZM255-600Zm344 344Z"/></svg>

<svg xmlns="http://www.w3.org/2000/svg" height="20" viewBox="0 -960 960 960" width="20"><path d="M468.21-480q-15.21 0-25.71-10.29t-10.5-25.5q0-15.21 10.29-25.71t25.5-10.5q15.21 0 25.71 10.29t10.5 25.5q0 15.21-10.29 25.71t-25.5 10.5Zm0-216q-15.21 0-25.71-10.29t-10.5-25.5q0-15.21 10.29-25.71t25.5-10.5q15.21 0 25.71 10.29t10.5 25.5q0 15.21-10.29 25.71t-25.5 10.5Zm56 108q-15.21 0-25.71-10.29t-10.5-25.5q0-15.21 10.29-25.71t25.5-10.5q15.21 0 25.71 10.29t10.5 25.5q0 15.21-10.29 25.71t-25.5 10.5Zm56 108q-15.21 0-25.71-10.29t-10.5-25.5q0-15.21 10.29-25.71t25.5-10.5q15.21 0 25.71 10.29t10.5 25.5q0 15.21-10.29 25.71t-25.5 10.5Zm0-216q-15.21 0-25.71-10.29t-10.5-25.5q0-15.21 10.29-25.71t25.5-10.5q15.21 0 25.71 10.29t10.5 25.5q0 15.21-10.29 25.71t-25.5 10.5Zm56 108q-15.21 0-25.71-10.29t-10.5-25.5q0-15.21 10.29-25.71t25.5-10.5q15.21 0 25.71 10.29t10.5 25.5q0 15.21-10.29 25.71t-25.5 10.5Zm56 108q-15.21 0-25.71-10.29t-10.5-25.5q0-15.21 10.29-25.71t25.5-10.5q15.21 0 25.71 10.29t10.5 25.5q0 15.21-10.29 25.71t-25.5 10.5Zm0-216q-15.21 0-25.71-10.29t-10.5-25.5q0-15.21 10.29-25.71t25.5-10.5q15.21 0 25.71 10.29t10.5 25.5q0 15.21-10.29 25.71t-25.5 10.5Zm56 108q-15.21 0-25.71-10.29t-10.5-25.5q0-15.21 10.29-25.71t25.5-10.5q15.21 0 25.71 10.29t10.5 25.5q0 15.21-10.29 25.71t-25.5 10.5Zm56 108q-15.21 0-25.71-10.29t-10.5-25.5q0-15.21 10.29-25.71t25.5-10.5q15.21 0 25.71 10.29t10.5 25.5q0 15.21-10.29 25.71t-25.5 10.5Zm0-216q-15.21 0-25.71-10.29t-10.5-25.5q0-15.21 10.29-25.71t25.5-10.5q15.21 0 25.71 10.29t10.5 25.5q0 15.21-10.29 25.71t-25.5 10.5ZM763-145q-121-9-229.5-59.5T339-341q-86-86-135.5-194T144-764q-2-21 12.29-36.5Q170.57-816 192-816h136q17 0 29.5 10.5T374-779l24 106q2 13-1.5 25T385-628l-97 98q20 38 46 73t57.97 65.98Q422-361 456-335.5q34 25.5 72 45.5l99-96q8-8 20-11.5t25-1.5l107 23q17 5 27 17.5t10 29.5v136q0 21.43-16 35.71Q784-143 763-145ZM255-600l70-70-17.16-74H218q5 38 14 73.5t23 70.5Zm344 344q35.1 14.24 71.55 22.62Q707-225 744-220v-90l-75-16-70 70ZM255-600Zm344 344Z"/></svg>
